X:254
T:Immortal, Invisible, God Only Wise
%%stretchlast false
M:3/4
L:1/4
K:F clef=C1
"^I"[F,FAf] "^IV"[B,FBd] [B,DB] | "^ii"[G,Bdg] "^V"[CGce] [CEc] | "^vi"[DFAf] "^I²"[CFca] "^I¹"[A,Fca] | "^V"[CEcg]/ "^V7"[CEBg]/ "^I"[F,FAf]2 | "^I¹"[A,Fcf] "^IV"[B,FBd] [B,DB] | "^ii"[G,Bdg] "^V"[CGce] [CEc] | "^vi"[DFAf] "^I²"[CFca] "^I¹"[A,Fca] | "^V"[CEcg]/ "^V7"[CEBg]/ "^I"[F,FAf]2 | [FAcf] "^vi"[Ddfa] [Ddfa] | "^V¹"[Ecgc'] "^I"[Fcfa] "^I¹"[A,Fcf] | "^vi"[DFAf] "^iii"[A,Eca] "^I"[F,Aca] | "^iii"[A,Acc'] "^i"[CFcg] "^V"[CEcg] | "^I"[F,Fca] "^IV"[B,DBf] [B,FBd] | "^ii"[G,Bdg] "^V"[CGce] [CEc] | "^vi"[DFAf] "^I²"[CFca] "^I¹"[A,Fca] | "^V"[CEcg]/ "^V7"[CEBg]/ "^I"[F,FAf]2 |]
